data/sixtyfour.svg

<?xml version="1.0" encoding="utf-8" ?>
<svg baseProfile="tiny" height="100%" version="1.2" width="100%" xmlns="http://www.w3.org/2000/svg" xmlns:ev="http://www.w3.org/2001/xml-events" xmlns:xlink="http://www.w3.org/1999/xlink"><defs /><g><path d="M291 14H733Q761 14 777.0 29.0Q793 44 793.0 64.0Q793 84 777.0 99.0Q761 114 733 114H291Q263 114 247.0 99.0Q231 84 231.0 64.0Q231 44 247.0 29.0Q263 14 291 14ZM163 142H349Q377 142 393.0 157.0Q409 172 409.0 192.0Q409 212 393.0 227.0Q377 242 349 242H163Q135 242 119.0 227.0Q103 212 103.0 192.0Q103 172 119.0 157.0Q135 142 163 142ZM675 142H861Q889 142 905.0 157.0Q921 172 921.0 192.0Q921 212 905.0 227.0Q889 242 861 242H675Q647 242 631.0 227.0Q615 212 615.0 192.0Q615 172 631.0 157.0Q647 142 675 142ZM675 270H861Q889 270 905.0 285.0Q921 300 921.0 320.0Q921 340 905.0 355.0Q889 370 861 370H675Q647 370 631.0 355.0Q615 340 615.0 320.0Q615 300 631.0 285.0Q647 270 675 270ZM291 398H733Q761 398 777.0 413.0Q793 428 793.0 448.0Q793 468 777.0 483.0Q761 498 733 498H291Q263 498 247.0 483.0Q231 468 231.0 448.0Q231 428 247.0 413.0Q263 398 291 398ZM163 526H349Q377 526 393.0 541.0Q409 556 409.0 576.0Q409 596 393.0 611.0Q377 626 349 626H163Q135 626 119.0 611.0Q103 596 103.0 576.0Q103 556 119.0 541.0Q135 526 163 526ZM163 654H349Q377 654 393.0 669.0Q409 684 409.0 704.0Q409 724 393.0 739.0Q377 754 349 754H163Q135 754 119.0 739.0Q103 724 103.0 704.0Q103 684 119.0 669.0Q135 654 163 654ZM675 654H861Q889 654 905.0 669.0Q921 684 921.0 704.0Q921 724 905.0 739.0Q889 754 861 754H675Q647 754 631.0 739.0Q615 724 615.0 704.0Q615 684 631.0 669.0Q647 654 675 654ZM291 782H733Q761 782 777.0 797.0Q793 812 793.0 832.0Q793 852 777.0 867.0Q761 882 733 882H291Q263 882 247.0 867.0Q231 852 231.0 832.0Q231 812 247.0 797.0Q263 782 291 782Z" transform="translate(0.0, 72) scale(0.0703125, -0.0703125)" /><path d="M291 14H733Q761 14 777.0 29.0Q793 44 793.0 64.0Q793 84 777.0 99.0Q761 114 733 114H291Q263 114 247.0 99.0Q231 84 231.0 64.0Q231 44 247.0 29.0Q263 14 291 14ZM419 142H605Q633 142 649.0 157.0Q665 172 665.0 192.0Q665 212 649.0 227.0Q633 242 605 242H419Q391 242 375.0 227.0Q359 212 359.0 192.0Q359 172 375.0 157.0Q391 142 419 142ZM419 270H605Q633 270 649.0 285.0Q665 300 665.0 320.0Q665 340 649.0 355.0Q633 370 605 370H419Q391 370 375.0 355.0Q359 340 359.0 320.0Q359 300 375.0 285.0Q391 270 419 270ZM291 398H605Q633 398 649.0 413.0Q665 428 665.0 448.0Q665 468 649.0 483.0Q633 498 605 498H291Q263 498 247.0 483.0Q231 468 231.0 448.0Q231 428 247.0 413.0Q263 398 291 398ZM419 654H605Q633 654 649.0 669.0Q665 684 665.0 704.0Q665 724 649.0 739.0Q633 754 605 754H419Q391 754 375.0 739.0Q359 724 359.0 704.0Q359 684 375.0 669.0Q391 654 419 654Z" transform="translate(72.0, 72) scale(0.0703125, -0.0703125)" /><path d="M163 14H349Q377 14 393.0 29.0Q409 44 409.0 64.0Q409 84 393.0 99.0Q377 114 349 114H163Q135 114 119.0 99.0Q103 84 103.0 64.0Q103 44 119.0 29.0Q135 14 163 14ZM675 14H861Q889 14 905.0 29.0Q921 44 921.0 64.0Q921 84 905.0 99.0Q889 114 861 114H675Q647 114 631.0 99.0Q615 84 615.0 64.0Q615 44 631.0 29.0Q647 14 675 14ZM291 142H733Q761 142 777.0 157.0Q793 172 793.0 192.0Q793 212 777.0 227.0Q761 242 733 242H291Q263 242 247.0 227.0Q231 212 231.0 192.0Q231 172 247.0 157.0Q263 142 291 142ZM419 270H605Q633 270 649.0 285.0Q665 300 665.0 320.0Q665 340 649.0 355.0Q633 370 605 370H419Q391 370 375.0 355.0Q359 340 359.0 320.0Q359 300 375.0 285.0Q391 270 419 270ZM291 398H733Q761 398 777.0 413.0Q793 428 793.0 448.0Q793 468 777.0 483.0Q761 498 733 498H291Q263 498 247.0 483.0Q231 468 231.0 448.0Q231 428 247.0 413.0Q263 398 291 398ZM163 526H349Q377 526 393.0 541.0Q409 556 409.0 576.0Q409 596 393.0 611.0Q377 626 349 626H163Q135 626 119.0 611.0Q103 596 103.0 576.0Q103 556 119.0 541.0Q135 526 163 526ZM675 526H861Q889 526 905.0 541.0Q921 556 921.0 576.0Q921 596 905.0 611.0Q889 626 861 626H675Q647 626 631.0 611.0Q615 596 615.0 576.0Q615 556 631.0 541.0Q647 526 675 526Z" transform="translate(144.0, 72) scale(0.0703125, -0.0703125)" /><path d="M547 14H861Q889 14 905.0 29.0Q921 44 921.0 64.0Q921 84 905.0 99.0Q889 114 861 114H547Q519 114 503.0 99.0Q487 84 487.0 64.0Q487 44 503.0 29.0Q519 14 547 14ZM419 142H605Q633 142 649.0 157.0Q665 172 665.0 192.0Q665 212 649.0 227.0Q633 242 605 242H419Q391 242 375.0 227.0Q359 212 359.0 192.0Q359 172 375.0 157.0Q391 142 419 142ZM419 270H605Q633 270 649.0 285.0Q665 300 665.0 320.0Q665 340 649.0 355.0Q633 370 605 370H419Q391 370 375.0 355.0Q359 340 359.0 320.0Q359 300 375.0 285.0Q391 270 419 270ZM419 398H605Q633 398 649.0 413.0Q665 428 665.0 448.0Q665 468 649.0 483.0Q633 498 605 498H419Q391 498 375.0 483.0Q359 468 359.0 448.0Q359 428 375.0 413.0Q391 398 419 398ZM163 526H861Q889 526 905.0 541.0Q921 556 921.0 576.0Q921 596 905.0 611.0Q889 626 861 626H163Q135 626 119.0 611.0Q103 596 103.0 576.0Q103 556 119.0 541.0Q135 526 163 526ZM419 654H605Q633 654 649.0 669.0Q665 684 665.0 704.0Q665 724 649.0 739.0Q633 754 605 754H419Q391 754 375.0 739.0Q359 724 359.0 704.0Q359 684 375.0 669.0Q391 654 419 654Z" transform="translate(216.0, 72) scale(0.0703125, -0.0703125)" /><path d="M163 -114H733Q761 -114 777.0 -99.0Q793 -84 793.0 -64.0Q793 -44 777.0 -29.0Q761 -14 733 -14H163Q135 -14 119.0 -29.0Q103 -44 103.0 -64.0Q103 -84 119.0 -99.0Q135 -114 163 -114ZM675 14H861Q889 14 905.0 29.0Q921 44 921.0 64.0Q921 84 905.0 99.0Q889 114 861 114H675Q647 114 631.0 99.0Q615 84 615.0 64.0Q615 44 631.0 29.0Q647 14 675 14ZM291 142H861Q889 142 905.0 157.0Q921 172 921.0 192.0Q921 212 905.0 227.0Q889 242 861 242H291Q263 242 247.0 227.0Q231 212 231.0 192.0Q231 172 247.0 157.0Q263 142 291 142ZM163 270H349Q377 270 393.0 285.0Q409 300 409.0 320.0Q409 340 393.0 355.0Q377 370 349 370H163Q135 370 119.0 355.0Q103 340 103.0 320.0Q103 300 119.0 285.0Q135 270 163 270ZM675 270H861Q889 270 905.0 285.0Q921 300 921.0 320.0Q921 340 905.0 355.0Q889 370 861 370H675Q647 370 631.0 355.0Q615 340 615.0 320.0Q615 300 631.0 285.0Q647 270 675 270ZM163 398H349Q377 398 393.0 413.0Q409 428 409.0 448.0Q409 468 393.0 483.0Q377 498 349 498H163Q135 498 119.0 483.0Q103 468 103.0 448.0Q103 428 119.0 413.0Q135 398 163 398ZM675 398H861Q889 398 905.0 413.0Q921 428 921.0 448.0Q921 468 905.0 483.0Q889 498 861 498H675Q647 498 631.0 483.0Q615 468 615.0 448.0Q615 428 631.0 413.0Q647 398 675 398ZM163 526H349Q377 526 393.0 541.0Q409 556 409.0 576.0Q409 596 393.0 611.0Q377 626 349 626H163Q135 626 119.0 611.0Q103 596 103.0 576.0Q103 556 119.0 541.0Q135 526 163 526ZM675 526H861Q889 526 905.0 541.0Q921 556 921.0 576.0Q921 596 905.0 611.0Q889 626 861 626H675Q647 626 631.0 611.0Q615 596 615.0 576.0Q615 556 631.0 541.0Q647 526 675 526Z" transform="translate(288.0, 72) scale(0.0703125, -0.0703125)" /><path d="M419 14H605Q633 14 649.0 29.0Q665 44 665.0 64.0Q665 84 649.0 99.0Q633 114 605 114H419Q391 114 375.0 99.0Q359 84 359.0 64.0Q359 44 375.0 29.0Q391 14 419 14ZM419 142H605Q633 142 649.0 157.0Q665 172 665.0 192.0Q665 212 649.0 227.0Q633 242 605 242H419Q391 242 375.0 227.0Q359 212 359.0 192.0Q359 172 375.0 157.0Q391 142 419 142ZM419 270H605Q633 270 649.0 285.0Q665 300 665.0 320.0Q665 340 649.0 355.0Q633 370 605 370H419Q391 370 375.0 355.0Q359 340 359.0 320.0Q359 300 375.0 285.0Q391 270 419 270ZM291 398H861Q889 398 905.0 413.0Q921 428 921.0 448.0Q921 468 905.0 483.0Q889 498 861 498H291Q263 498 247.0 483.0Q231 468 231.0 448.0Q231 428 247.0 413.0Q263 398 291 398ZM419 526H605Q633 526 649.0 541.0Q665 556 665.0 576.0Q665 596 649.0 611.0Q633 626 605 626H419Q391 626 375.0 611.0Q359 596 359.0 576.0Q359 556 375.0 541.0Q391 526 419 526ZM547 654H861Q889 654 905.0 669.0Q921 684 921.0 704.0Q921 724 905.0 739.0Q889 754 861 754H547Q519 754 503.0 739.0Q487 724 487.0 704.0Q487 684 503.0 669.0Q519 654 547 654Z" transform="translate(360.0, 72) scale(0.0703125, -0.0703125)" /><path d="M291 14H733Q761 14 777.0 29.0Q793 44 793.0 64.0Q793 84 777.0 99.0Q761 114 733 114H291Q263 114 247.0 99.0Q231 84 231.0 64.0Q231 44 247.0 29.0Q263 14 291 14ZM163 142H349Q377 142 393.0 157.0Q409 172 409.0 192.0Q409 212 393.0 227.0Q377 242 349 242H163Q135 242 119.0 227.0Q103 212 103.0 192.0Q103 172 119.0 157.0Q135 142 163 142ZM675 142H861Q889 142 905.0 157.0Q921 172 921.0 192.0Q921 212 905.0 227.0Q889 242 861 242H675Q647 242 631.0 227.0Q615 212 615.0 192.0Q615 172 631.0 157.0Q647 142 675 142ZM163 270H349Q377 270 393.0 285.0Q409 300 409.0 320.0Q409 340 393.0 355.0Q377 370 349 370H163Q135 370 119.0 355.0Q103 340 103.0 320.0Q103 300 119.0 285.0Q135 270 163 270ZM675 270H861Q889 270 905.0 285.0Q921 300 921.0 320.0Q921 340 905.0 355.0Q889 370 861 370H675Q647 370 631.0 355.0Q615 340 615.0 320.0Q615 300 631.0 285.0Q647 270 675 270ZM163 398H349Q377 398 393.0 413.0Q409 428 409.0 448.0Q409 468 393.0 483.0Q377 498 349 498H163Q135 498 119.0 483.0Q103 468 103.0 448.0Q103 428 119.0 413.0Q135 398 163 398ZM675 398H861Q889 398 905.0 413.0Q921 428 921.0 448.0Q921 468 905.0 483.0Q889 498 861 498H675Q647 498 631.0 483.0Q615 468 615.0 448.0Q615 428 631.0 413.0Q647 398 675 398ZM291 526H733Q761 526 777.0 541.0Q793 556 793.0 576.0Q793 596 777.0 611.0Q761 626 733 626H291Q263 626 247.0 611.0Q231 596 231.0 576.0Q231 556 247.0 541.0Q263 526 291 526Z" transform="translate(432.0, 72) scale(0.0703125, -0.0703125)" /><path d="M291 14H861Q889 14 905.0 29.0Q921 44 921.0 64.0Q921 84 905.0 99.0Q889 114 861 114H291Q263 114 247.0 99.0Q231 84 231.0 64.0Q231 44 247.0 29.0Q263 14 291 14ZM163 142H349Q377 142 393.0 157.0Q409 172 409.0 192.0Q409 212 393.0 227.0Q377 242 349 242H163Q135 242 119.0 227.0Q103 212 103.0 192.0Q103 172 119.0 157.0Q135 142 163 142ZM675 142H861Q889 142 905.0 157.0Q921 172 921.0 192.0Q921 212 905.0 227.0Q889 242 861 242H675Q647 242 631.0 227.0Q615 212 615.0 192.0Q615 172 631.0 157.0Q647 142 675 142ZM163 270H349Q377 270 393.0 285.0Q409 300 409.0 320.0Q409 340 393.0 355.0Q377 370 349 370H163Q135 370 119.0 355.0Q103 340 103.0 320.0Q103 300 119.0 285.0Q135 270 163 270ZM675 270H861Q889 270 905.0 285.0Q921 300 921.0 320.0Q921 340 905.0 355.0Q889 370 861 370H675Q647 370 631.0 355.0Q615 340 615.0 320.0Q615 300 631.0 285.0Q647 270 675 270ZM163 398H349Q377 398 393.0 413.0Q409 428 409.0 448.0Q409 468 393.0 483.0Q377 498 349 498H163Q135 498 119.0 483.0Q103 468 103.0 448.0Q103 428 119.0 413.0Q135 398 163 398ZM675 398H861Q889 398 905.0 413.0Q921 428 921.0 448.0Q921 468 905.0 483.0Q889 498 861 498H675Q647 498 631.0 483.0Q615 468 615.0 448.0Q615 428 631.0 413.0Q647 398 675 398ZM163 526H349Q377 526 393.0 541.0Q409 556 409.0 576.0Q409 596 393.0 611.0Q377 626 349 626H163Q135 626 119.0 611.0Q103 596 103.0 576.0Q103 556 119.0 541.0Q135 526 163 526ZM675 526H861Q889 526 905.0 541.0Q921 556 921.0 576.0Q921 596 905.0 611.0Q889 626 861 626H675Q647 626 631.0 611.0Q615 596 615.0 576.0Q615 556 631.0 541.0Q647 526 675 526Z" transform="translate(504.0, 72) scale(0.0703125, -0.0703125)" /><path d="M163 14H349Q377 14 393.0 29.0Q409 44 409.0 64.0Q409 84 393.0 99.0Q377 114 349 114H163Q135 114 119.0 99.0Q103 84 103.0 64.0Q103 44 119.0 29.0Q135 14 163 14ZM163 142H349Q377 142 393.0 157.0Q409 172 409.0 192.0Q409 212 393.0 227.0Q377 242 349 242H163Q135 242 119.0 227.0Q103 212 103.0 192.0Q103 172 119.0 157.0Q135 142 163 142ZM163 270H349Q377 270 393.0 285.0Q409 300 409.0 320.0Q409 340 393.0 355.0Q377 370 349 370H163Q135 370 119.0 355.0Q103 340 103.0 320.0Q103 300 119.0 285.0Q135 270 163 270ZM163 398H349Q377 398 393.0 413.0Q409 428 409.0 448.0Q409 468 393.0 483.0Q377 498 349 498H163Q135 498 119.0 483.0Q103 468 103.0 448.0Q103 428 119.0 413.0Q135 398 163 398ZM675 398H861Q889 398 905.0 413.0Q921 428 921.0 448.0Q921 468 905.0 483.0Q889 498 861 498H675Q647 498 631.0 483.0Q615 468 615.0 448.0Q615 428 631.0 413.0Q647 398 675 398ZM163 526H733Q761 526 777.0 541.0Q793 556 793.0 576.0Q793 596 777.0 611.0Q761 626 733 626H163Q135 626 119.0 611.0Q103 596 103.0 576.0Q103 556 119.0 541.0Q135 526 163 526Z" transform="translate(576.0, 72) scale(0.0703125, -0.0703125)" /></g></svg>

<svg width="126" height="14" viewBox="0 0 126 14" xmlns="http://www.w3.org/2000/svg"><path transform="translate(0 12.25) scale(.013672 -.013672)" d="m291 14h442q28 0 44 15t16 35-16 35-44 15h-442q-28 0-44-15t-16-35 16-35 44-15zm-128 128h186q28 0 44 15t16 35-16 35-44 15h-186q-28 0-44-15t-16-35 16-35 44-15zm512 0h186q28 0 44 15t16 35-16 35-44 15h-186q-28 0-44-15t-16-35 16-35 44-15zm0 128h186q28 0 44 15t16 35-16 35-44 15h-186q-28 0-44-15t-16-35 16-35 44-15zm-384 128h442q28 0 44 15t16 35-16 35-44 15h-442q-28 0-44-15t-16-35 16-35 44-15zm-128 128h186q28 0 44 15t16 35-16 35-44 15h-186q-28 0-44-15t-16-35 16-35 44-15zm0 128h186q28 0 44 15t16 35-16 35-44 15h-186q-28 0-44-15t-16-35 16-35 44-15zm512 0h186q28 0 44 15t16 35-16 35-44 15h-186q-28 0-44-15t-16-35 16-35 44-15zm-384 128h442q28 0 44 15t16 35-16 35-44 15h-442q-28 0-44-15t-16-35 16-35 44-15z"/><path transform="translate(14 12.25) scale(.013672 -.013672)" d="m291 14h442q28 0 44 15t16 35-16 35-44 15h-442q-28 0-44-15t-16-35 16-35 44-15zm128 128h186q28 0 44 15t16 35-16 35-44 15h-186q-28 0-44-15t-16-35 16-35 44-15zm0 128h186q28 0 44 15t16 35-16 35-44 15h-186q-28 0-44-15t-16-35 16-35 44-15zm-128 128h314q28 0 44 15t16 35-16 35-44 15h-314q-28 0-44-15t-16-35 16-35 44-15zm128 256h186q28 0 44 15t16 35-16 35-44 15h-186q-28 0-44-15t-16-35 16-35 44-15z"/><path transform="translate(28 12.25) scale(.013672 -.013672)" d="m163 14h186q28 0 44 15t16 35-16 35-44 15h-186q-28 0-44-15t-16-35 16-35 44-15zm512 0h186q28 0 44 15t16 35-16 35-44 15h-186q-28 0-44-15t-16-35 16-35 44-15zm-384 128h442q28 0 44 15t16 35-16 35-44 15h-442q-28 0-44-15t-16-35 16-35 44-15zm128 128h186q28 0 44 15t16 35-16 35-44 15h-186q-28 0-44-15t-16-35 16-35 44-15zm-128 128h442q28 0 44 15t16 35-16 35-44 15h-442q-28 0-44-15t-16-35 16-35 44-15zm-128 128h186q28 0 44 15t16 35-16 35-44 15h-186q-28 0-44-15t-16-35 16-35 44-15zm512 0h186q28 0 44 15t16 35-16 35-44 15h-186q-28 0-44-15t-16-35 16-35 44-15z"/><path transform="translate(42 12.25) scale(.013672 -.013672)" d="m547 14h314q28 0 44 15t16 35-16 35-44 15h-314q-28 0-44-15t-16-35 16-35 44-15zm-128 128h186q28 0 44 15t16 35-16 35-44 15h-186q-28 0-44-15t-16-35 16-35 44-15zm0 128h186q28 0 44 15t16 35-16 35-44 15h-186q-28 0-44-15t-16-35 16-35 44-15zm0 128h186q28 0 44 15t16 35-16 35-44 15h-186q-28 0-44-15t-16-35 16-35 44-15zm-256 128h698q28 0 44 15t16 35-16 35-44 15h-698q-28 0-44-15t-16-35 16-35 44-15zm256 128h186q28 0 44 15t16 35-16 35-44 15h-186q-28 0-44-15t-16-35 16-35 44-15z"/><path transform="translate(56 12.25) scale(.013672 -.013672)" d="m163-114h570q28 0 44 15t16 35-16 35-44 15h-570q-28 0-44-15t-16-35 16-35 44-15zm512 128h186q28 0 44 15t16 35-16 35-44 15h-186q-28 0-44-15t-16-35 16-35 44-15zm-384 128h570q28 0 44 15t16 35-16 35-44 15h-570q-28 0-44-15t-16-35 16-35 44-15zm-128 128h186q28 0 44 15t16 35-16 35-44 15h-186q-28 0-44-15t-16-35 16-35 44-15zm512 0h186q28 0 44 15t16 35-16 35-44 15h-186q-28 0-44-15t-16-35 16-35 44-15zm-512 128h186q28 0 44 15t16 35-16 35-44 15h-186q-28 0-44-15t-16-35 16-35 44-15zm512 0h186q28 0 44 15t16 35-16 35-44 15h-186q-28 0-44-15t-16-35 16-35 44-15zm-512 128h186q28 0 44 15t16 35-16 35-44 15h-186q-28 0-44-15t-16-35 16-35 44-15zm512 0h186q28 0 44 15t16 35-16 35-44 15h-186q-28 0-44-15t-16-35 16-35 44-15z"/><path transform="translate(70 12.25) scale(.013672 -.013672)" d="m419 14h186q28 0 44 15t16 35-16 35-44 15h-186q-28 0-44-15t-16-35 16-35 44-15zm0 128h186q28 0 44 15t16 35-16 35-44 15h-186q-28 0-44-15t-16-35 16-35 44-15zm0 128h186q28 0 44 15t16 35-16 35-44 15h-186q-28 0-44-15t-16-35 16-35 44-15zm-128 128h570q28 0 44 15t16 35-16 35-44 15h-570q-28 0-44-15t-16-35 16-35 44-15zm128 128h186q28 0 44 15t16 35-16 35-44 15h-186q-28 0-44-15t-16-35 16-35 44-15zm128 128h314q28 0 44 15t16 35-16 35-44 15h-314q-28 0-44-15t-16-35 16-35 44-15z"/><path transform="translate(84 12.25) scale(.013672 -.013672)" d="m291 14h442q28 0 44 15t16 35-16 35-44 15h-442q-28 0-44-15t-16-35 16-35 44-15zm-128 128h186q28 0 44 15t16 35-16 35-44 15h-186q-28 0-44-15t-16-35 16-35 44-15zm512 0h186q28 0 44 15t16 35-16 35-44 15h-186q-28 0-44-15t-16-35 16-35 44-15zm-512 128h186q28 0 44 15t16 35-16 35-44 15h-186q-28 0-44-15t-16-35 16-35 44-15zm512 0h186q28 0 44 15t16 35-16 35-44 15h-186q-28 0-44-15t-16-35 16-35 44-15zm-512 128h186q28 0 44 15t16 35-16 35-44 15h-186q-28 0-44-15t-16-35 16-35 44-15zm512 0h186q28 0 44 15t16 35-16 35-44 15h-186q-28 0-44-15t-16-35 16-35 44-15zm-384 128h442q28 0 44 15t16 35-16 35-44 15h-442q-28 0-44-15t-16-35 16-35 44-15z"/><path transform="translate(98 12.25) scale(.013672 -.013672)" d="m291 14h570q28 0 44 15t16 35-16 35-44 15h-570q-28 0-44-15t-16-35 16-35 44-15zm-128 128h186q28 0 44 15t16 35-16 35-44 15h-186q-28 0-44-15t-16-35 16-35 44-15zm512 0h186q28 0 44 15t16 35-16 35-44 15h-186q-28 0-44-15t-16-35 16-35 44-15zm-512 128h186q28 0 44 15t16 35-16 35-44 15h-186q-28 0-44-15t-16-35 16-35 44-15zm512 0h186q28 0 44 15t16 35-16 35-44 15h-186q-28 0-44-15t-16-35 16-35 44-15zm-512 128h186q28 0 44 15t16 35-16 35-44 15h-186q-28 0-44-15t-16-35 16-35 44-15zm512 0h186q28 0 44 15t16 35-16 35-44 15h-186q-28 0-44-15t-16-35 16-35 44-15zm-512 128h186q28 0 44 15t16 35-16 35-44 15h-186q-28 0-44-15t-16-35 16-35 44-15zm512 0h186q28 0 44 15t16 35-16 35-44 15h-186q-28 0-44-15t-16-35 16-35 44-15z"/><path transform="translate(112 12.25) scale(.013672 -.013672)" d="m163 14h186q28 0 44 15t16 35-16 35-44 15h-186q-28 0-44-15t-16-35 16-35 44-15zm0 128h186q28 0 44 15t16 35-16 35-44 15h-186q-28 0-44-15t-16-35 16-35 44-15zm0 128h186q28 0 44 15t16 35-16 35-44 15h-186q-28 0-44-15t-16-35 16-35 44-15zm0 128h186q28 0 44 15t16 35-16 35-44 15h-186q-28 0-44-15t-16-35 16-35 44-15zm512 0h186q28 0 44 15t16 35-16 35-44 15h-186q-28 0-44-15t-16-35 16-35 44-15zm-512 128h570q28 0 44 15t16 35-16 35-44 15h-570q-28 0-44-15t-16-35 16-35 44-15z"/></svg>
